X: 11044
T: Dublin Porter, The
R: reel
M: 4/4
K: Gmajor
|:B3A BcdB|cBAB cdec|Addc dcAG|FGAF DEFD|
B3A BcdB|cBAB cdef|g2fg ecAF|AGGF G2 GA:|
|:g3f gdBd|g2fg eA A2|eA A2 edeg|fgaf gfef|
g3f gdBd|g2fg eA A2|eA A2 edeg|fgaf gfed:|

